www/assets/icons/temple_hindu.svg

<svg xmlns="http://www.w3.org/2000/svg" width="24" height="24" viewBox="0 0 24 24" fill='currentColor'><path d="M6.6 11.5h10.8l-.9-3h-9zm13.4 0v2H4v-2H2v11h8v-5h4v5h8v-11zm-4.1-5-.9-3v-2h-2v2h-2.03v-2h-2v2.12L8.1 6.5z"/></svg>

<svg width="24" height="24" viewBox="0 0 24 24" xmlns="http://www.w3.org/2000/svg" fill='currentColor'><path d="M6.6 11.5H17.4L16.5 8.5H7.5L6.6 11.5Z"/><path d="M20 11.5V13.5H4V11.5H2V22.5H10V17.5H14V22.5H22V11.5H20Z"/><path d="M15.9 6.5L15 3.5V1.5H13V3.5H10.97V1.5H8.97V3.62L8.1 6.5H15.9Z"/></svg>
